X:1
T: The Humors of Scarriff
C:
R:Reel
Q: 232
K:Am
M:4/4
L:1/8
|:Ad de f2 ed|cA Gc Ac Gc|Ad de f2 ed|cA GE ED D2|
Ad de f2 ed|cA Gc Ac Gc|Ad de f2 ed|cA GE ED D2|
ec gc ac gc|ec gc ea ((3aga) |ec gc ac ec|ed cd ed d2|
ec gc ac gc|ec gc ea ((3aga) |ea2a ge dB|cA GE ED D2:|
